packages/foundations/assets/icons/functional/images/date & time/alarm_clock.svg

<svg xmlns="http://www.w3.org/2000/svg" width="32" height="32" fill="none"><path fill="#1A1C1F" fill-rule="evenodd" d="M8.121 4.054c-1.852.2-3.439 1.575-3.97 3.439-.102.358-.122.551-.12 1.2.002.685.019.828.146 1.243.249.811.572 1.37 1.135 1.957l.332.347-.183.635C5.11 14.094 5.042 14.6 5.043 16c0 .969.021 1.368.094 1.76.306 1.646.853 3.004 1.746 4.333.262.389.534.779.605.867l.13.16-1.246 1.674c-.686.921-1.272 1.747-1.303 1.835a1.17 1.17 0 0 0 .016.747c.155.369.695.676 1.062.603.417-.084.489-.161 1.702-1.812l1.196-1.627c.01-.011.18.1.379.247a11.4 11.4 0 0 0 4.896 2.075c.745.128 2.615.128 3.36 0a11.4 11.4 0 0 0 4.896-2.075c.199-.147.369-.258.379-.247l1.196 1.627c1.25 1.701 1.303 1.756 1.775 1.819.276.037.721-.182.895-.44.151-.223.204-.627.118-.889-.033-.1-.622-.937-1.309-1.859l-1.249-1.678.129-.16c.071-.088.342-.476.603-.863.892-1.321 1.443-2.689 1.75-4.337.073-.392.094-.791.094-1.76.001-1.41-.074-1.962-.421-3.107l-.184-.608.295-.312a5 5 0 0 0 1.176-2.037c.127-.415.144-.558.146-1.243.002-.649-.018-.842-.12-1.2-.379-1.331-1.232-2.369-2.436-2.964-.746-.369-1.227-.483-2.053-.486-1.322-.006-2.339.393-3.261 1.277l-.354.34-.529-.164c-2.006-.624-4.426-.624-6.432 0l-.529.164-.354-.34a6 6 0 0 0-.612-.515c-.848-.578-2.076-.869-3.168-.751m1.465 2.121c.154.059.39.172.525.251l.245.144-.445.294C8.68 7.68 7.553 8.813 6.805 9.987c-.107.168-.207.306-.221.306-.068 0-.359-.543-.453-.845a2.95 2.95 0 0 1 .002-1.566c.263-.854.96-1.53 1.814-1.762.461-.125 1.244-.099 1.639.055m14.404-.067c.866.197 1.607.897 1.877 1.774.142.457.142 1.111.002 1.566-.094.302-.384.845-.453.845-.014 0-.162-.205-.329-.456-.733-1.102-1.765-2.126-2.968-2.946-.458-.312-.464-.32-.346-.397a2.81 2.81 0 0 1 2.217-.386m-6.203 1.091a9.8 9.8 0 0 1 2.224.768c3.717 1.869 5.66 5.955 4.755 10.004a8.98 8.98 0 0 1-5.899 6.535c-4.3 1.439-8.984-.524-10.947-4.586-.362-.749-.516-1.189-.686-1.949C6.095 12.876 9.452 7.965 14.648 7.12c.712-.115 2.437-.072 3.139.079m-2.276 1.935c-.233.142-.378.32-.462.567s-.088 6.284-.004 6.592c.048.178.319.476 1.64 1.804.87.875 1.654 1.629 1.742 1.675.388.206.899.163 1.182-.098.181-.167.335-.507.335-.741 0-.369-.168-.582-1.565-1.973l-1.366-1.359v-2.859c0-2.03-.018-2.912-.062-3.041A.97.97 0 0 0 16 9.014c-.21 0-.349.034-.489.12"/></svg>

<svg width="32" height="32" viewBox="0 0 32 32" fill="none" xmlns="http://www.w3.org/2000/svg"><path d="M8.121 4.054 C 6.269 4.254,4.682 5.629,4.151 7.493 C 4.049 7.851,4.029 8.044,4.031 8.693 C 4.033 9.378,4.050 9.521,4.177 9.936 C 4.426 10.747,4.749 11.306,5.312 11.893 L 5.644 12.240 5.461 12.875 C 5.110 14.094,5.042 14.600,5.043 16.000 C 5.043 16.969,5.064 17.368,5.137 17.760 C 5.443 19.406,5.990 20.764,6.883 22.093 C 7.145 22.482,7.417 22.872,7.488 22.960 L 7.618 23.120 6.372 24.794 C 5.686 25.715,5.100 26.541,5.069 26.629 C 4.992 26.850,4.999 27.170,5.085 27.376 C 5.240 27.745,5.780 28.052,6.147 27.979 C 6.564 27.895,6.636 27.818,7.849 26.167 C 8.498 25.283,9.036 24.551,9.045 24.540 C 9.055 24.529,9.225 24.640,9.424 24.787 C 10.874 25.856,12.517 26.552,14.320 26.862 C 15.065 26.990,16.935 26.990,17.680 26.862 C 19.483 26.552,21.126 25.856,22.576 24.787 C 22.775 24.640,22.945 24.529,22.955 24.540 C 22.964 24.551,23.502 25.283,24.151 26.167 C 25.401 27.868,25.454 27.923,25.926 27.986 C 26.202 28.023,26.647 27.804,26.821 27.546 C 26.972 27.323,27.025 26.919,26.939 26.657 C 26.906 26.557,26.317 25.720,25.630 24.798 L 24.381 23.120 24.510 22.960 C 24.581 22.872,24.852 22.484,25.113 22.097 C 26.005 20.776,26.556 19.408,26.863 17.760 C 26.936 17.368,26.957 16.969,26.957 16.000 C 26.958 14.590,26.883 14.038,26.536 12.893 L 26.352 12.285 26.647 11.973 C 27.199 11.389,27.580 10.730,27.823 9.936 C 27.950 9.521,27.967 9.378,27.969 8.693 C 27.971 8.044,27.951 7.851,27.849 7.493 C 27.470 6.162,26.617 5.124,25.413 4.529 C 24.667 4.160,24.186 4.046,23.360 4.043 C 22.038 4.037,21.021 4.436,20.099 5.320 L 19.745 5.660 19.216 5.496 C 17.210 4.872,14.790 4.872,12.784 5.496 L 12.255 5.660 11.901 5.320 C 11.706 5.133,11.431 4.901,11.289 4.805 C 10.441 4.227,9.213 3.936,8.121 4.054 M9.586 6.175 C 9.740 6.234,9.976 6.347,10.111 6.426 L 10.356 6.570 9.911 6.864 C 8.680 7.680,7.553 8.813,6.805 9.987 C 6.698 10.155,6.598 10.293,6.584 10.293 C 6.516 10.293,6.225 9.750,6.131 9.448 C 5.991 8.993,5.991 8.339,6.133 7.882 C 6.396 7.028,7.093 6.352,7.947 6.120 C 8.408 5.995,9.191 6.021,9.586 6.175 M23.990 6.108 C 24.856 6.305,25.597 7.005,25.867 7.882 C 26.009 8.339,26.009 8.993,25.869 9.448 C 25.775 9.750,25.485 10.293,25.416 10.293 C 25.402 10.293,25.254 10.088,25.087 9.837 C 24.354 8.735,23.322 7.711,22.119 6.891 C 21.661 6.579,21.655 6.571,21.773 6.494 C 22.435 6.061,23.199 5.928,23.990 6.108 M17.787 7.199 C 18.549 7.362,19.376 7.648,20.011 7.967 C 23.728 9.836,25.671 13.922,24.766 17.971 C 24.085 21.021,21.836 23.512,18.867 24.506 C 14.567 25.945,9.883 23.982,7.920 19.920 C 7.558 19.171,7.404 18.731,7.234 17.971 C 6.095 12.876,9.452 7.965,14.648 7.120 C 15.360 7.005,17.085 7.048,17.787 7.199 M15.511 9.134 C 15.278 9.276,15.133 9.454,15.049 9.701 C 14.965 9.947,14.961 15.985,15.045 16.293 C 15.093 16.471,15.364 16.769,16.685 18.097 C 17.555 18.972,18.339 19.726,18.427 19.772 C 18.815 19.978,19.326 19.935,19.609 19.674 C 19.790 19.507,19.944 19.167,19.944 18.933 C 19.944 18.564,19.776 18.351,18.379 16.960 L 17.013 15.601 17.013 12.742 C 17.013 10.712,16.995 9.830,16.951 9.701 C 16.804 9.269,16.451 9.014,16.000 9.014 C 15.790 9.014,15.651 9.048,15.511 9.134 " fill="#1A1C1F" stroke="none" fill-rule="evenodd"></path></svg>
